Sources/FrostedUI/Resources/Icons.xcassets/arrowUpRightFromSquare20.imageset/arrow-up-right-from-square-20.svg

<svg width="20" height="20" viewBox="0 0 20 20" fill="none" xmlns="http://www.w3.org/2000/svg" data-fui-icon="true">
  <path
    d="M7.70801 4.04199C8.12222 4.04199 8.45801 4.37778 8.45801 4.79199C8.45783 5.20606 8.12211 5.54199 7.70801 5.54199H5.72949C5.28089 5.54199 4.9863 5.5423 4.76074 5.55957C4.5431 5.57626 4.45123 5.60537 4.39941 5.62988C4.20786 5.72058 4.05351 5.8748 3.96289 6.06641C3.9384 6.11821 3.90926 6.20936 3.89258 6.42676C3.87529 6.65231 3.875 6.94686 3.875 7.39551V14.208C3.875 14.6871 3.87587 15.0019 3.89551 15.2422C3.91437 15.4729 3.94671 15.5691 3.97461 15.624C4.06247 15.7965 4.20269 15.9376 4.375 16.0254H4.37598C4.43094 16.0533 4.52716 16.0856 4.75781 16.1045C4.99811 16.1241 5.31291 16.125 5.79199 16.125H12.542C13.0209 16.125 13.335 16.1241 13.5752 16.1045C13.8067 16.0856 13.9031 16.0534 13.958 16.0254C14.1303 15.9376 14.2705 15.7973 14.3584 15.625V15.624C14.3863 15.5691 14.4196 15.4731 14.4385 15.2422C14.4581 15.0019 14.458 14.6871 14.458 14.208V11.667C14.458 11.2529 14.7939 10.9172 15.208 10.917C15.6222 10.917 15.958 11.2528 15.958 11.667V14.208C15.958 14.6623 15.9594 15.0487 15.9336 15.3643C15.9071 15.6885 15.849 16.0041 15.6953 16.3057C15.4637 16.7604 15.0934 17.1297 14.6387 17.3613C14.3371 17.515 14.0216 17.5731 13.6973 17.5996C13.3818 17.6254 12.9961 17.625 12.542 17.625H5.79199C5.33766 17.625 4.95129 17.6254 4.63574 17.5996C4.31151 17.5731 3.99589 17.515 3.69434 17.3613C3.23975 17.1297 2.8703 16.7601 2.63867 16.3057C2.48501 16.0041 2.42689 15.6885 2.40039 15.3643C2.37461 15.0487 2.375 14.6623 2.375 14.208V7.39551C2.375 6.97002 2.37476 6.60864 2.39746 6.3125C2.42078 6.00831 2.47191 5.71131 2.60742 5.4248C2.8465 4.91955 3.25348 4.51243 3.75879 4.27344C4.04511 4.1381 4.34153 4.08679 4.64551 4.06348C4.94174 4.04077 5.30382 4.04199 5.72949 4.04199H7.70801ZM16.875 2.375C17.2892 2.375 17.625 2.71079 17.625 3.125V8.54199C17.6248 8.95606 17.2891 9.29199 16.875 9.29199C16.4609 9.29199 16.1252 8.95606 16.125 8.54199V4.93555L9.69727 11.3633C9.40437 11.6562 8.92961 11.6562 8.63672 11.3633C8.34383 11.0704 8.34383 10.5956 8.63672 10.3027L15.0645 3.875H11.458C11.0439 3.87482 10.708 3.53911 10.708 3.125C10.708 2.71089 11.0439 2.37518 11.458 2.375H16.875Z"
    fill="currentColor"
  />
</svg>

<svg xmlns="http://www.w3.org/2000/svg" width="20" height="20" fill="none" data-fui-icon="true" viewBox="0 0 20 20"><path fill="currentColor" d="M7.708 4.042a.75.75 0 0 1 0 1.5H5.729c-.448 0-.743 0-.968.018-.218.016-.31.045-.362.07a.92.92 0 0 0-.436.436c-.025.052-.054.143-.07.36-.018.226-.018.52-.018.97v6.812c0 .48 0 .794.02 1.034.02.23.052.327.08.382a.9.9 0 0 0 .4.401h.001c.055.028.151.06.382.08.24.02.555.02 1.034.02h6.75c.479 0 .793 0 1.033-.02.232-.02.328-.052.383-.08a.9.9 0 0 0 .4-.4v-.001c.028-.055.062-.15.08-.382.02-.24.02-.555.02-1.034v-2.541a.75.75 0 0 1 1.5 0v2.541c0 .454.001.84-.024 1.156-.027.324-.085.64-.239.942a2.4 2.4 0 0 1-1.056 1.055c-.302.154-.617.212-.942.239-.315.025-.7.025-1.155.025h-6.75c-.454 0-.84 0-1.156-.025-.324-.027-.64-.085-.942-.239a2.4 2.4 0 0 1-1.055-1.055c-.154-.302-.212-.618-.239-.942-.025-.315-.025-.702-.025-1.156V7.396c0-.426 0-.787.022-1.083a2.5 2.5 0 0 1 .21-.888c.24-.505.646-.913 1.152-1.152.286-.135.583-.186.887-.21.296-.022.658-.021 1.083-.021zm9.167-1.667a.75.75 0 0 1 .75.75v5.417a.75.75 0 0 1-1.5 0V4.936l-6.428 6.427a.75.75 0 1 1-1.06-1.06l6.428-6.428h-3.607a.75.75 0 0 1 0-1.5z"/></svg>
